src/assets/images/menu_background_deliver.svg

<svg clip-rule="evenodd" fill-rule="evenodd" stroke-linejoin="round" stroke-miterlimit="2" viewBox="0 0 101 56" xmlns="http://www.w3.org/2000/svg"><g fill="#ff9e16"><path d="m29 55.982c-.333.012-.667.018-1 .018-14.232.001-26.316-10.849-27.841-25h-.159v-31h57v56h-28z"/><path d="m54 0h47v56h-47v-.07c-14.579-1.033-26.021-13.315-26.021-27.93s11.442-26.897 26.021-27.93z"/></g></svg>

<svg id="menue_background_order" xmlns="http://www.w3.org/2000/svg" width="101" height="56" viewBox="0 0 101 56">
  <path id="Pfad_5" data-name="Pfad 5" d="M29,55.982Q28.5,56,28,56A28,28,0,0,1,.159,31H0V0H24V.284A28.237,28.237,0,0,1,28,0q.5,0,1,.018V0H57V56H29Z" fill="#ff9e16" fill-rule="evenodd"/>
  <path id="Pfad_6" data-name="Pfad 6" d="M56,0h45V56H54v-.07A28,28,0,0,1,54,.07V0Z" fill="#ff9e16" fill-rule="evenodd"/>
</svg>
